images/about/info-three-image.svg

<?xml version="1.0" encoding="UTF-8" standalone="no"?>
<svg
   width="350"
   height="350"
   viewBox="0 0 350 350"
   fill="none"
   version="1.1"
   id="svg24"
   sodipodi:docname="info-three-image.svg"
   inkscape:version="1.1 (c68e22c387, 2021-05-23)"
   xmlns:inkscape="http://www.inkscape.org/namespaces/inkscape"
   xmlns:sodipodi="http://sodipodi.sourceforge.net/DTD/sodipodi-0.dtd"
   xmlns="http://www.w3.org/2000/svg"
   xmlns:svg="http://www.w3.org/2000/svg">
  <sodipodi:namedview
     id="namedview26"
     pagecolor="#ffffff"
     bordercolor="#666666"
     borderopacity="1.0"
     inkscape:pageshadow="2"
     inkscape:pageopacity="0.0"
     inkscape:pagecheckerboard="0"
     showgrid="false"
     inkscape:zoom="1.6313725"
     inkscape:cx="228.02885"
     inkscape:cy="157.22957"
     inkscape:window-width="1920"
     inkscape:window-height="1017"
     inkscape:window-x="-8"
     inkscape:window-y="-8"
     inkscape:window-maximized="1"
     inkscape:current-layer="svg24" />
  <g
     opacity="0.5"
     clip-path="url(#clip0)"
     id="g10">
    <path
       opacity="0.529052"
       d="m 216.177,107.283 c -42.133,19.139 -60.773,68.81 -41.634,110.943 19.139,42.133 68.81,60.773 110.943,41.634 42.133,-19.14 60.773,-68.81 41.634,-110.943 -19.139,-42.133 -68.81,-60.7733 -110.943,-41.634 z"
       fill="#e7652c"
       stroke="#e7652c"
       stroke-width="10.2763"
       id="path2" />
    <path
       d="m 193.75,161.015 c -42.133,19.139 -60.773,68.81 -41.634,110.943 19.139,42.133 68.81,60.773 110.943,41.634 42.133,-19.139 60.773,-68.81 41.634,-110.943 -19.14,-42.133 -68.81,-60.773 -110.943,-41.634 z"
       fill="#e7652c"
       stroke="#e7652c"
       stroke-width="10.2763"
       id="path4" />
    <path
       d="m 68.5079,178.631 c -31.5997,14.354 -45.5798,51.607 -31.2254,83.207 14.3544,31.6 51.6076,45.58 83.2075,31.225 31.599,-14.354 45.58,-51.607 31.225,-83.207 -14.354,-31.599 -51.607,-45.58 -83.2071,-31.225 z"
       fill="#f9c9b4"
       id="path6" />
    <path
       opacity="0.623853"
       d="m 118.829,169.14 c -37.8381,17.189 -54.5783,61.797 -37.3899,99.635 17.1883,37.838 61.7959,54.579 99.6349,37.39 37.838,-17.188 54.578,-61.796 37.39,-99.635 -17.188,-37.838 -61.796,-54.578 -99.635,-37.39 z"
       fill="#f9c9b4"
       id="path8" />
  </g>
  <g
     clip-path="url(#clip1)"
     id="g14">
    <path
       d="M 283.11,67.5324 228.037,12.3712 c -2.632,-2.63873 -6.14,-4.09386 -9.873,-4.09386 -2.945,0 -5.807,0.9342 -8.178,2.64976 l -1.527,0.8709 -70.863,9.7465 c -1.623,0.0602 -3.195,0.3175 -4.698,0.7434 l -2.486,-2.3378 c -0.103,-0.0958 -0.207,-0.19 -0.313,-0.2811 -2.529,-2.1756 -5.758,-3.3734 -9.094,-3.3734 -3.732,0 -7.24,1.4551 -9.876,4.0978 L 56.0629,75.5475 c -4.9235,4.9346 -5.4342,12.8215 -1.1915,18.3475 0.1465,0.1892 0.2993,0.3744 0.4584,0.5526 l 23.6289,26.3784 c 0.7656,3.191 1.8153,6.478 3.1272,9.848 -5.7311,6.903 -5.3701,17.191 1.0965,23.66 0.0111,0.011 0.0221,0.022 0.0332,0.033 l 0.0768,0.076 c 3.2452,3.233 7.5314,5.033 12.0987,5.114 -0.0847,0.707 -0.1433,1.419 -0.1433,2.142 0,4.689 1.8224,9.097 5.1322,12.418 l 0.071,0.071 c 0.011,0.012 0.021,0.023 0.032,0.034 3.323,3.322 7.741,5.154 12.44,5.154 0.545,0 1.083,-0.03 1.619,-0.08 0.052,0.06 0.109,0.119 0.162,0.179 -0.01,0.239 -0.035,0.475 -0.035,0.714 0,4.69 1.823,9.099 5.134,12.42 l 0.073,0.074 c 0.01,0.01 0.02,0.02 0.03,0.03 3.322,3.322 7.739,5.152 12.439,5.152 0.012,0 0.023,-0.002 0.035,-0.002 l 1.677,1.677 c 0.194,4.401 1.98,8.513 5.115,11.648 0.019,0.019 0.04,0.04 0.06,0.06 l 0.061,0.06 c 3.129,3.111 7.226,4.883 11.608,5.077 l 4.636,4.636 c 3.786,3.787 8.833,5.872 14.208,5.872 6.187,0 11.936,-2.781 15.774,-7.631 2.087,-2.636 3.4,-5.661 3.96,-8.796 l 2.911,2.912 c 3.845,3.845 9.157,6.051 14.572,6.051 4.471,0 8.845,-1.512 12.315,-4.259 3.855,-3.051 6.439,-7.398 7.307,-12.181 3.718,3.18 8.523,4.979 13.413,4.979 4.471,0 8.845,-1.513 12.315,-4.26 4.496,-3.558 7.265,-8.881 7.597,-14.602 0.309,-5.316 -1.5,-10.524 -4.99,-14.477 3.228,-0.569 6.287,-1.925 8.854,-3.956 4.497,-3.558 7.265,-8.881 7.597,-14.602 0.333,-5.731 -1.795,-11.337 -5.839,-15.38 l -7.468,-7.468 c 0.273,-0.271 0.533,-0.554 0.773,-0.86 13.985,-17.819 21.515,-31.076 24.292,-42.8049 0.217,-0.3832 0.41,-0.7822 0.573,-1.1939 l 1.542,-3.8856 c 3.186,-5.3962 2.385,-12.4177 -2.133,-16.9462 z M 95.7069,150.073 c -2.0702,0 -4.1397,-0.79 -5.7207,-2.37 l -0.0855,-0.085 c -3.1581,-3.158 -3.1581,-8.281 0,-11.439 l 6.3288,-6.329 c 1.5794,-1.581 3.6489,-2.371 5.7195,-2.371 2.072,0 4.142,0.79 5.723,2.371 l 0.083,0.084 c 3.16,3.159 3.16,8.282 0,11.441 l -6.327,6.328 c -1.5805,1.579 -3.6508,2.37 -5.7211,2.37 z m 22.9381,17.431 c -1.581,1.58 -3.651,2.371 -5.722,2.371 -2.07,0 -4.14,-0.791 -5.721,-2.371 l -0.084,-0.085 c -3.16,-3.159 -3.16,-8.281 0,-11.44 l 14.972,-14.973 c 1.581,-1.58 3.651,-2.37 5.722,-2.37 2.072,0 4.142,0.79 5.722,2.37 l 0.085,0.084 c 3.159,3.16 3.159,8.283 0,11.441 z m 19.42,18.491 c -1.579,1.579 -3.649,2.369 -5.72,2.369 -2.071,0 -4.141,-0.79 -5.721,-2.369 l -0.085,-0.086 c -3.16,-3.158 -3.16,-8.281 0,-11.441 l 9.689,-9.691 c 1.58,-1.58 3.65,-2.369 5.721,-2.369 2.07,0 4.14,0.789 5.722,2.369 l 0.085,0.085 c 3.158,3.159 3.158,8.283 0,11.442 z m 13.63,20.928 c -2.071,0 -4.14,-0.791 -5.72,-2.37 l -0.086,-0.084 c -3.16,-3.16 -3.16,-8.283 0,-11.442 l 4.408,-4.408 c 1.58,-1.579 3.65,-2.369 5.721,-2.369 2.07,0 4.141,0.79 5.722,2.369 l 0.084,0.086 c 3.158,3.16 3.158,8.282 0,11.441 l -4.408,4.407 c -1.581,1.579 -3.651,2.37 -5.721,2.37 z m 26.376,6.443 c -2.125,2.685 -5.225,4.027 -8.325,4.027 -2.715,0 -5.431,-1.03 -7.491,-3.089 l -0.819,-0.819 c 0.96,-0.641 1.863,-1.38 2.697,-2.214 l 4.407,-4.406 c 3.103,-3.104 4.787,-7.091 5.081,-11.159 l 3.389,3.388 c 3.84,3.838 4.43,10.015 1.061,14.272 z m 80.743,-65.958 c 4.412,4.411 4.1,11.829 -0.937,15.816 -1.886,1.493 -4.148,2.208 -6.418,2.208 -2.853,0 -5.717,-1.131 -7.854,-3.269 l -38.412,-38.412 c -0.997,-0.997 -2.304,-1.496 -3.611,-1.496 -1.306,0 -2.614,0.499 -3.611,1.496 -2.019,2.019 -2.019,5.293 0,7.311 l 49.381,49.381 c 4.411,4.411 4.099,11.829 -0.937,15.815 -1.886,1.493 -4.148,2.209 -6.418,2.209 -2.853,0 -5.717,-1.132 -7.854,-3.269 l -49.15,-49.149 c -1.01,-1.011 -2.334,-1.517 -3.66,-1.517 -1.324,0 -2.649,0.506 -3.66,1.517 -1.991,1.991 -1.991,5.221 0,7.212 l 38.644,38.643 c 4.411,4.411 4.099,11.829 -0.937,15.815 -1.886,1.493 -4.148,2.208 -6.418,2.208 -2.853,0 -5.716,-1.13 -7.854,-3.269 l -39.933,-39.934 c -0.703,-3.146 -2.259,-6.138 -4.701,-8.581 l -0.087,-0.086 c -2.756,-2.755 -6.269,-4.464 -10.065,-4.973 0.755,-1.979 1.166,-4.093 1.166,-6.274 0,-4.698 -1.83,-9.116 -5.152,-12.438 -0.009,-0.01 -0.019,-0.019 -0.028,-0.029 l -0.075,-0.073 c -3.32,-3.313 -7.731,-5.136 -12.421,-5.136 -3.108,0 -6.084,0.815 -8.71,2.319 -0.751,-3.074 -2.306,-5.902 -4.595,-8.202 l -0.057,-0.058 c -0.02,-0.02 -0.041,-0.042 -0.061,-0.062 -3.323,-3.323 -7.741,-5.154 -12.44,-5.154 -4.7006,0 -9.1183,1.832 -12.4402,5.156 l -0.0277,0.028 c -0.6136,-1.91 -1.1345,-3.802 -1.5407,-5.67 -0.1433,-0.653 -0.418,-1.267 -0.8257,-1.798 L 62.4068,88.1085 c -1.3586,-1.7687 -1.1971,-4.2704 0.3776,-5.849 L 117.856,27.1014 c 0.865,-0.8677 2.005,-1.3055 3.149,-1.3055 1.03,0 2.062,0.3555 2.899,1.0751 l 0.436,0.4093 c -3.688,3.6284 -5.981,8.6691 -5.981,14.2379 0,10.9989 8.928,19.9498 19.917,19.9886 l 35.083,0.4449 z m 17.948,-67.3178 -1.893,4.7692 c -0.407,0.5304 -0.682,1.144 -0.825,1.7979 -2.676,12.28 -12.108,26.3677 -22.682,39.8397 -13.45,-13.451 -73.965,-73.9957 -73.965,-73.9957 l -39.049,-0.4956 c -5.769,0 -10.489,-4.7201 -10.489,-10.4883 0,-5.7683 4.72,-10.4876 10.489,-10.4876 l 73.218,-10.0703 c 0.008,-8e-4 0.015,-0.0048 0.02,-0.0095 l 3.678,-2.098 c 0.837,-0.7197 1.869,-1.0751 2.899,-1.0751 1.143,0 2.284,0.4386 3.149,1.3055 l 55.072,55.158 c 1.575,1.5794 1.737,4.0812 0.378,5.8498 z"
       fill="#000000"
       id="path12" />
  </g>
  <defs
     id="defs22">
    <clipPath
       id="clip0">
      <rect
         width="344"
         height="344"
         fill="#ffffff"
         transform="rotate(155.57,187.99074,232.90189)"
         id="rect16"
         x="0"
         y="0" />
    </clipPath>
    <clipPath
       id="clip1">
      <rect
         width="235.17"
         height="235.17"
         fill="#ffffff"
         transform="translate(52)"
         id="rect19"
         x="0"
         y="0" />
    </clipPath>
  </defs>
</svg>

<svg width="456" height="510" viewBox="0 0 456 510" fill="none" xmlns="http://www.w3.org/2000/svg">
<g opacity="0.5" clip-path="url(#clip0)">
<path opacity="0.529052" d="M216.177 107.283C174.044 126.422 155.404 176.093 174.543 218.226C193.682 260.359 243.353 278.999 285.486 259.86C327.619 240.72 346.259 191.05 327.12 148.917C307.981 106.784 258.31 88.1437 216.177 107.283Z" fill="#E7652C" stroke="#E7652C" stroke-width="10.2763"/>
<path d="M193.75 161.015C151.617 180.154 132.977 229.825 152.116 271.958C171.255 314.091 220.926 332.731 263.059 313.592C305.192 294.453 323.832 244.782 304.693 202.649C285.553 160.516 235.883 141.876 193.75 161.015Z" fill="#E7652C" stroke="#E7652C" stroke-width="10.2763"/>
<path d="M68.5079 178.631C36.9082 192.985 22.9281 230.238 37.2825 261.838C51.6369 293.438 88.8901 307.418 120.49 293.063C152.089 278.709 166.07 241.456 151.715 209.856C137.361 178.257 100.108 164.276 68.5079 178.631Z" fill="#F9C9B4"/>
<path opacity="0.623853" d="M118.829 169.14C80.9909 186.329 64.2507 230.937 81.4391 268.775C98.6274 306.613 143.235 323.354 181.074 306.165C218.912 288.977 235.652 244.369 218.464 206.53C201.276 168.692 156.668 151.952 118.829 169.14Z" fill="#F9C9B4"/>
</g>
<g clip-path="url(#clip1)">
<path d="M283.11 67.5324L228.037 12.3712C225.405 9.73247 221.897 8.27734 218.164 8.27734C215.219 8.27734 212.357 9.21154 209.986 10.9271L208.459 11.798L137.596 21.5445C135.973 21.6047 134.401 21.862 132.898 22.2879L130.412 19.9501C130.309 19.8543 130.205 19.7601 130.099 19.669C127.57 17.4934 124.341 16.2956 121.005 16.2956C117.273 16.2956 113.765 17.7507 111.129 20.3934L56.0629 75.5475C51.1394 80.4821 50.6287 88.369 54.8714 93.895C55.0179 94.0842 55.1707 94.2694 55.3298 94.4476L78.9587 120.826C79.7243 124.017 80.774 127.304 82.0859 130.674C76.3548 137.577 76.7158 147.865 83.1824 154.334C83.1935 154.345 83.2045 154.356 83.2156 154.367L83.2924 154.443C86.5376 157.676 90.8238 159.476 95.3911 159.557C95.3064 160.264 95.2478 160.976 95.2478 161.699C95.2478 166.388 97.0702 170.796 100.38 174.117L100.451 174.188C100.462 174.2 100.472 174.211 100.483 174.222C103.806 177.544 108.224 179.376 112.923 179.376C113.468 179.376 114.006 179.346 114.542 179.296C114.594 179.356 114.651 179.415 114.704 179.475C114.694 179.714 114.669 179.95 114.669 180.189C114.669 184.879 116.492 189.288 119.803 192.609L119.876 192.683C119.886 192.693 119.896 192.703 119.906 192.713C123.228 196.035 127.645 197.865 132.345 197.865C132.357 197.865 132.368 197.863 132.38 197.863L134.057 199.54C134.251 203.941 136.037 208.053 139.172 211.188C139.191 211.207 139.212 211.228 139.232 211.248L139.293 211.308C142.422 214.419 146.519 216.191 150.901 216.385L155.537 221.021C159.323 224.808 164.37 226.893 169.745 226.893C175.932 226.893 181.681 224.112 185.519 219.262C187.606 216.626 188.919 213.601 189.479 210.466L192.39 213.378C196.235 217.223 201.547 219.429 206.962 219.429C211.433 219.429 215.807 217.917 219.277 215.17C223.132 212.119 225.716 207.772 226.584 202.989C230.302 206.169 235.107 207.968 239.997 207.968C244.468 207.968 248.842 206.455 252.312 203.708C256.808 200.15 259.577 194.827 259.909 189.106C260.218 183.79 258.409 178.582 254.919 174.629C258.147 174.06 261.206 172.704 263.773 170.673C268.27 167.115 271.038 161.792 271.37 156.071C271.703 150.34 269.575 144.734 265.531 140.691L258.063 133.223C258.336 132.952 258.596 132.669 258.836 132.363C272.821 114.544 280.351 101.287 283.128 89.5581C283.345 89.1749 283.538 88.7759 283.701 88.3642L285.243 84.4786C288.429 79.0824 287.628 72.0609 283.11 67.5324ZM95.7069 150.073C93.6367 150.073 91.5672 149.283 89.9862 147.703L89.9007 147.618C86.7426 144.46 86.7426 139.337 89.9007 136.179L96.2295 129.85C97.8089 128.269 99.8784 127.479 101.949 127.479C104.021 127.479 106.091 128.269 107.672 129.85L107.755 129.934C110.915 133.093 110.915 138.216 107.755 141.375L101.428 147.703C99.8475 149.282 97.7772 150.073 95.7069 150.073ZM118.645 167.504C117.064 169.084 114.994 169.875 112.923 169.875C110.853 169.875 108.783 169.084 107.202 167.504L107.118 167.419C103.958 164.26 103.958 159.138 107.118 155.979L122.09 141.006C123.671 139.426 125.741 138.636 127.812 138.636C129.884 138.636 131.954 139.426 133.534 141.006L133.619 141.09C136.778 144.25 136.778 149.373 133.619 152.531L118.645 167.504ZM138.065 185.995C136.486 187.574 134.416 188.364 132.345 188.364C130.274 188.364 128.204 187.574 126.624 185.995L126.539 185.909C123.379 182.751 123.379 177.628 126.539 174.468L136.228 164.777C137.808 163.197 139.878 162.408 141.949 162.408C144.019 162.408 146.089 163.197 147.671 164.777L147.756 164.862C150.914 168.021 150.914 173.145 147.756 176.304L138.065 185.995ZM151.695 206.923C149.624 206.923 147.555 206.132 145.975 204.553L145.889 204.469C142.729 201.309 142.729 196.186 145.889 193.027L150.297 188.619C151.877 187.04 153.947 186.25 156.018 186.25C158.088 186.25 160.159 187.04 161.74 188.619L161.824 188.705C164.982 191.865 164.982 196.987 161.824 200.146L157.416 204.553C155.835 206.132 153.765 206.923 151.695 206.923ZM178.071 213.366C175.946 216.051 172.846 217.393 169.746 217.393C167.031 217.393 164.315 216.363 162.255 214.304L161.436 213.485C162.396 212.844 163.299 212.105 164.133 211.271L168.54 206.865C171.643 203.761 173.327 199.774 173.621 195.706L177.01 199.094C180.85 202.932 181.44 209.109 178.071 213.366ZM258.814 147.408C263.226 151.819 262.914 159.237 257.877 163.224C255.991 164.717 253.729 165.432 251.459 165.432C248.606 165.432 245.742 164.301 243.605 162.163L205.193 123.751C204.196 122.754 202.889 122.255 201.582 122.255C200.276 122.255 198.968 122.754 197.971 123.751C195.952 125.77 195.952 129.044 197.971 131.062L247.352 180.443C251.763 184.854 251.451 192.272 246.415 196.258C244.529 197.751 242.267 198.467 239.997 198.467C237.144 198.467 234.28 197.335 232.143 195.198L182.993 146.049C181.983 145.038 180.659 144.532 179.333 144.532C178.009 144.532 176.684 145.038 175.673 146.049C173.682 148.04 173.682 151.27 175.673 153.261L214.317 191.904C218.728 196.315 218.416 203.733 213.38 207.719C211.494 209.212 209.232 209.927 206.962 209.927C204.109 209.927 201.246 208.797 199.108 206.658L159.175 166.724C158.472 163.578 156.916 160.586 154.474 158.143L154.387 158.057C151.631 155.302 148.118 153.593 144.322 153.084C145.077 151.105 145.488 148.991 145.488 146.81C145.488 142.112 143.658 137.694 140.336 134.372C140.327 134.362 140.317 134.353 140.308 134.343L140.233 134.27C136.913 130.957 132.502 129.134 127.812 129.134C124.704 129.134 121.728 129.949 119.102 131.453C118.351 128.379 116.796 125.551 114.507 123.251L114.45 123.193C114.43 123.173 114.409 123.151 114.389 123.131C111.066 119.808 106.648 117.977 101.949 117.977C97.2484 117.977 92.8307 119.809 89.5088 123.133L89.4811 123.161C88.8675 121.251 88.3466 119.359 87.9404 117.491C87.7971 116.838 87.5224 116.224 87.1147 115.693L62.4068 88.1085C61.0482 86.3398 61.2097 83.8381 62.7844 82.2595L117.856 27.1014C118.721 26.2337 119.861 25.7959 121.005 25.7959C122.035 25.7959 123.067 26.1514 123.904 26.871L124.34 27.2803C120.652 30.9087 118.359 35.9494 118.359 41.5182C118.359 52.5171 127.287 61.468 138.276 61.5068L173.359 61.9517L258.814 147.408ZM276.762 80.0902L274.869 84.8594C274.462 85.3898 274.187 86.0034 274.044 86.6573C271.368 98.9373 261.936 113.025 251.362 126.497C237.912 113.046 177.397 52.5013 177.397 52.5013L138.348 52.0057C132.579 52.0057 127.859 47.2856 127.859 41.5174C127.859 35.7491 132.579 31.0298 138.348 31.0298L211.566 20.9595C211.574 20.9587 211.581 20.9547 211.586 20.95L215.264 18.852C216.101 18.1323 217.133 17.7769 218.163 17.7769C219.306 17.7769 220.447 18.2155 221.312 19.0824L276.384 74.2404C277.959 75.8198 278.121 78.3216 276.762 80.0902Z" fill="black"/>
</g>
<defs>
<clipPath id="clip0">
<rect width="344" height="344" fill="white" transform="translate(455.474 367.202) rotate(155.57)"/>
</clipPath>
<clipPath id="clip1">
<rect width="235.17" height="235.17" fill="white" transform="translate(52)"/>
</clipPath>
</defs>
</svg>
